X: 11350
T: Earl Of Dalkeith's, The
R: reel
M: 4/4
K: Gmajor
c|BddB cBAG|EGDG EGDG|BddB cBAG|DGBG A2 G:|
c|B/A/G dG eGdG|BdgB BAAc|B/A/G dG eGdG|BdAd BGGc|
B/A/G dG eGdG|BdgB BAAc|Bdef gedc|BdAd BGG||

